X: 179
T: Bank of Turf
R:jig
M:6/8
L:1/8
K:D
dcB|:"D"ABA DFA|BAF DFA|dcd "A"ede|"D"~f3 def|
"G"~g3 gab|"D"afd "G(Bm)"Bcd|1"A" efe e2d|cBA "D"dcB:|2"D"ABd "A"efe|"D"d3 dcd||
|:"A"eAA efg|"D"fdd fga|"G"gfe "D"fed|"G"edB "D"ABd|
"A"eAA efg|"D"fdd fga|"G"gfe dcB|1"D"A3 Bcd:|2"D"A3 dcB|]


